shader_type spatial;

uniform sampler2D depth_texture : hint_depth_texture, repeat_disable, filter_nearest;

void fragment() {
    float depth = textureLod(depth_texture, SCREEN_UV, 0.0).r;
    vec4 upos = INV_PROJECTION_MATRIX * vec4(SCREEN_UV * 2.0 - 1.0, depth, 1.0);
    vec3 pixel_position = upos.xyz / upos.w;
}
